X:1
T:La garde montante et descendante
T:La garde montante et descendante
T:Carmen
T:Georges Bizet
C:Georges Bizet
%%score 1 2
L:1/8
Q:1/4=168
M:6/8
K:F
V:1 treble nm="Soprano" snm="S."
V:2 treble nm="Mezzo-soprano" snm="Mzs."
V:1
 z6 | z6 | z6 | z6 | z6 | z6 | z6 | z6 | z6 | z6 | z6 | z6 | z6 | z6 | z6 | z6 || %16
w: ||||||||||||||||
[M:2/4][Q:1/4=112] z4 | z4 | z4 | z4 | z4 | z4 | z4 | z4 | z4 | z4 | z4 | z4 | z4 | z4 | z4 | z4 | %32
w: ||||||||||||||||
 z4 | z4 | z4 | z4 | z4 | z4 | z4 | z4 | z4 | z4 | z4 | z4 | z4 | z4 | z4 | z4 | z4 | z4 | z4 | %51
w: |||||||||||||||||||
 z4 | z4 | z4 | z4 | z4 | z4 | z4 | z4 | z4 | z4 | z4 | z4 | z4 | z4 | z4 | z4 | z4 | z4 | z4 | %70
w: |||||||||||||||||||
 z4 | z4 | z4 | z4 | z4 | z4 |!f!"^ben rimato, quasi staccato" dA Ad | ^c=B A-A/ z/ | dA Ad | %79
w: ||||||A- vec la gar-|de mon- tant- te,|Nous ar- ri- vons|
 ^c=B A-A/ z/ | c2 fc | dc/d/ ee/ z/ | AA/A/ dd | AA D z |!f! dA Ad | ^c=B A-A/ z/ | dA Ad | %87
w: nous voi- là! _|Son- ne trom-|pette é- cla- tant- te!|Ta- ra- ta- ta ta-|ra- ta- ta.|Nous mar- chons la|tê- te hau- te|Com- me de pe-|
 ^c=B A-A/ z/ | c2 fc | dc/d/ ee/ z/ |"^(parlé)" B z Bd | AA D z | BF FB | AG F-F/ z/ | BF FB | %95
w: tits sol- dats, _|Mar- quant sans|fai- re de fau- te|Une, deux, mar-|quant le pas.|Les é- pau- les|en ar- riè- re|Et la poi- trine|
 AG F-F/ z/ | d2 _eB | cB/c/ d-d/ z/ | =BB cG | BA c z | BF FB | AG F-F/ z/ | BF FB | AG F-F/ z/ | %104
w: en- de- hors, _|Les bras de|cet- te ma- niè- re,|Tom- bant tout le|long du corps.|A- vec la gar-|de mon- tant- te,|Nous ar- ri- vons|nous voi- là! _|
 d2"^cresc. molto" _ee | ed/e/ f-f/ z/ |!ff! AA/A/ dd | AA D z |!mf! FF/F/ FF/F/ | F2- F/ z/ C/G/ | %110
w: Son- ne trom-|pette é- cla- tant- te!|Ta- ra- ta- ta ta-|ra- ta- ta.|Ta- ra- ta- ta ra- ta-|ta, _ Ta- ra-|
 FC/G/ Fc | F2 z c/f/ | e z z c/f/ | e z z c/f/ | e!<(!G/G/ cd!<)! | c2- c z |!f! GG/G/ GG/G/ | %117
w: ta ta- ra- ta ta-|ta, Ta- ra-|ta ta- ra-|ta ta- ra-|ta ta- ra- ta ta-|ta, _|Ta- ra- ta- ta ra- ta-|
 G2- G/ z/ D/A/ | GD/A/ Gd | G2 z d/d/ | f z z d/d/ | f z z d/d/ |!<(! fA/A/ df!<)! | e2- e z | %124
w: ta, _ Ta- ra-|ta ta- ra- ta ta-|ta, Ta- ra-|ta ta- ra-|ta ta- ra-|ta ra- ta- ta- ta|ta _|
!mf! AE EA | ^G^F E-E/ z/ | AE EA | ^G^F E-E/ z/ |!f! cG Gc | =BA G-G/ z/ |"^(parlé)" B z Bc | %131
w: Nous mar- chons la|tê- te hau- te|Com- me de pe-|tits sol- dats, _|Mar- quant sans fai-|re de fau- te,|Une, deux, mar-|
 =BA G-G/ z/ |!p! e"^cresc.molto"=B Be | dc =Be | d^c =Be |!<(! ^d^c =Bc/ z/!<)! || %136
w: quant le pas. _|Les é- pau- les|en ar- rière- Et|la poi- tri _|neen de- hors _|
[K:D]!ff! dA Ad | cB A-A/ z/ | dA Ad | cB A-A/ z/ | dd/d/ f-f/ z/ | dd f-f/ z/ | dA/A/ dA/A/ | %143
w: Les bras de cet-|te ma- niè- re|Tom- bant tout le|long du corps _|Nous ar- ri- vons! *|Nous voi- là! _|Ta- ra- ta ta- ra- ta|
!<(! dA/A/ de!<)! |!fff! f4- | f z (3aaa | d z !fermata!z2 |] %147
w: ta- ra- ta ta ta|ta|_ Ta- ra- ra-|ta!|
[K:F][M:6/8]"_La garde descendante"[Q:3/8=112] z6 | z6 | z6 | z6 | z6 | z6 | z6 | z6 || %155
w: ||||||||
[M:2/4][Q:1/4=112] dA Ad | ^c=B A-A/ z/ | dA Ad | ^c=B A-A/ z/ | c2 fc | dc/d/ ee/ z/ | AA/A/ dd | %162
w: Et la gar- de|des- cen- dan- te|Ren- tre chez- elle|et s'en va _|Son- ne trom-|tette é- cla- tan- te|Ta- ra- ta- ta ta-|
 AA D z |!f! dA Ad | ^c=B A-A/ z/ | dA Ad | ^c=B A-A/ z/ | c2 fc | dc/d/ ee/ z/ | %169
w: ra- ta- ta|Nous mar- chons la|tê- te hau- te|com- me de pe-|tits sol- dats _|Mar- quant sans|fai- re de fau- te,|
"^(parlé)" B z Bd | AA D z |!mf! FF/F/ FF/F/ | F2- F/ z/ C/G/ | FC/G/ Fc | F2 z c/f/ | e z z c/f/ | %176
w: Une, deux, mar-|quant le pas.|Ta- ra- ta- ta ra- ta-|ta, _ Ta- ra-|ta ta- ra- ta ta-|ta, Ta- ra-|ta ta- ra-|
 e z z c/f/ | eG/G/ cd | c2- c z |!mf! GG/G/ GG/G/ | G2- G/ z/ D/A/ | GD/A/ Gd | G2 z d/d/ | %183
w: ta ta- ra-|ta ta- ra- ta ta-|ta, _|Ta- ra- ta- ta ra- ta-|ta, _ Ta- ra-|ta ta- ra- ta ta-|ta, Ta- ra-|
"^dim." f z z d/d/ | f z z d/d/ |"^dim.molto" dA/A/ df |!p! e4- | e4- | e4- | e z z2 | z4 | z4 | %192
w: ta ta- ra-|ta ta- ra-|ta ra- ta- ta- ta|ta|_|||||
 z4 | z4 | z4 | z4 | z4 | z4 | z4 | z4 | z4 | z4 | z4 | z4 | z4 | z4 | z4 | z4 | z4 | z4 | z4 | %211
w: |||||||||||||||||||
 z4 | z4 | z4 | z4 |] %215
w: ||||
V:2
 z6 | z6 | z6 | z6 | z6 | z6 | z6 | z6 | z6 | z6 | z6 | z6 | z6 | z6 | z6 | z6 ||[M:2/4] z4 | z4 | %18
w: ||||||||||||||||||
 z4 | z4 | z4 | z4 | z4 | z4 | z4 | z4 | z4 | z4 | z4 | z4 | z4 | z4 | z4 | z4 | z4 | z4 | z4 | %37
w: |||||||||||||||||||
 z4 | z4 | z4 | z4 | z4 | z4 | z4 | z4 | z4 | z4 | z4 | z4 | z4 | z4 | z4 | z4 | z4 | z4 | z4 | %56
w: |||||||||||||||||||
 z4 | z4 | z4 | z4 | z4 | z4 | z4 | z4 | z4 | z4 | z4 | z4 | z4 | z4 | z4 | z4 | z4 | z4 | z4 | %75
w: |||||||||||||||||||
 z4 |!f!"^ben rimato, quasi staccato" dA Ad | ^c=B A-A/ z/ | dA Ad | ^c=B A-A/ z/ | c2 fc | %81
w: |A- vec la gar-|de mon- tant- te,|Nous ar- ri- vons|nous voi- là! _|Son- ne trom-|
 dc/d/ ee/ z/ | AA/A/ dd | AA D z |!f! dA Ad | ^c=B A-A/ z/ | dA Ad | ^c=B A-A/ z/ | c2 fc | %89
w: pette é- cla- tant- te!|Ta- ra- ta- ta ta-|ra- ta- ta.|Nous mar- chons la|tê- te hau- te|Com- me de pe-|tits sol- dats, _|Mar- quant sans|
 dc/d/ ee/ z/ |"^(parlé)" B z Bd | AA D z | BF FB | AG F-F/ z/ | BF FB | AG F-F/ z/ | d2 _eB | %97
w: fai- re de fau- te,|Une, deux, mar-|quant le pas.|Les é- pau- les|en ar- riè- re|Et la poi- trine|en- de- hors, _|Les bras de|
 cB/c/ d-d/ z/ | =BB cG | BA c z | BF FB | AG F-F/ z/ | BF FB | AG F-F/ z/ | %104
w: cet- te ma- niè- re,|Tom- bant tout le|long du corps.|A- vec la gar-|de mon- tant- te,|Nous ar- ri- vons|nous voi- là! _|
 d2"^cresc. molto" _ee | ed/e/ f-f/ z/ |!ff! AA/A/ dd | AA D z |!mf! FF/F/ FF/F/ | F2- F/ z/ C/G/ | %110
w: Son- ne trom-|pette é- cla- tant- te!|Ta- ra- ta- ta ta-|ra- ta- ta.|Ta- ra- ta- ta ra- ta-|ta, _ Ta- ra-|
 FC/G/ Fc | F2 z2 | z G/G/ c z | z G/G/ c z | z G/!<(!G/ EG!<)! | E2- E z |!f! GG/G/ GG/G/ | %117
w: ta ta- ra- ta ta-|ta,|Ta- ra- ta|ta- ra- ta|ta- ra- ta ta-|ta _|Ta- ra- ta- ta ra- ta-|
 G2- G/ z/ D/A/ | GD/A/ Gd | G2 z2 | z A/A/ d z | z A/A/ d z |!<(! z A/A/ FA!<)! | ^G2- G z | %124
w: ta, _ Ta- ra-|ta ta- ra- ta ta-|ta,|Ta- ra- ta|ta- ra- ta|ra- ta- ta- ta-|ta _|
!mf! AE EA | ^G^F E-E/ z/ | AE EA | ^G^F E-E/ z/ |!f! cG Gc | =BA G-G/ z/ |"^(parlé)" B z Bc | %131
w: Nous mar- chons la|tê- te hau- te|Com- me de pe-|tits sol- dats, _|Mar- quant sans fai-|re de fau- te,|Une, deux, mar-|
 =BA G-G/ z/ |!p! e"^cresc.molto"=B Be | dc =Be | d^c =Be |!<(! ^d^c =Bc/ z/!<)! || %136
w: quant le pas. _|Les é- pau- les|en ar- rière- Et|la poi- tri _|neen de- hors _|
[K:D]!ff! dA Ad | cB A-A/ z/ | dA Ad | cB A-A/ z/ | dd/d/ f-f/ z/ | dd f-f/ z/ | dA/A/ dA/A/ | %143
w: Les bras de cet-|te ma- niè- re,|Tom- bant tout le|long du corps _|Nous ar- ri- vons! *|Nous voi- là! _|Ta- ra- ta ta- ra- ta|
!<(! dA/A/ de!<)! |!fff! f4- | f z (3AAA | d z !fermata!z2 |][K:F][M:6/8] z6 | z6 | z6 | z6 | z6 | %152
w: ta- ra- ta ta ta|ta|_ Ta- ra- ta-|ta!||||||
 z6 | z6 | z6 ||[M:2/4]!f!!f! dA Ad | ^c=B A-A/ z/ | dA Ad | ^c=B A-A/ z/ | c2 fc | dc/d/ ee/ z/ | %161
w: |||Et la gar- de|des- cen- dan- te|Ren- tre chez elle|et s'en va _|Son- ne trom-|pette é- cla- tant- te|
 AA/A/ dd | AA D z |!f! dA Ad | ^c=B A-A/ z/ | dA Ad | ^c=B A-A/ z/ | c2 fc | dc/d/ ee/ z/ | %169
w: Ta- ra- ta- ta ta-|ra- ta- ta|Nous mar- chons la|tê- te hau- te|com- me de pe-|tits- sol- dats _|Mar- quant sans|fai- re de fau- te|
"^(parlé)" B z Bd | AA D z |!mf! FF/F/ FF/F/ | F2- F/ z/ C/G/ | FC/G/ Fc | F2 z2 | z G/G/ c z | %176
w: Une, deux, mar-|quant le pas.|Ta- ra- ta- ta ra- ta-|ta, _ Ta- ra-|ta ta- ra- ta ta-|ta,|Ta- ra- ta|
 z G/G/ c z | z G/G/ EG | E2- E z |!mf! GG/G/ GG/G/ | G2- G/ z/ D/A/ | GD/A/ Gd | G2 z2 | %183
w: ta- ra- ta|ta- ra- ta ta-|ta _|Ta- ra- ta- ta ra- ta-|ta _ Ta- ra-|ta- ta- ra- ta ta|ta|
 z"^dim." A/A/ d z | z A/A/ d z | z"^dim.molto" A/A/ FA |!p! ^G2- G z | z4 | z4 | z4 | z4 | z4 | %192
w: Ta- ra- ta|Ta- ra- ta|Ta- ra ta- ta|ta _||||||
 z4 | z4 | z4 | z4 | z4 | z4 | z4 | z4 | z4 | z4 | z4 | z4 | z4 | z4 | z4 | z4 | z4 | z4 | z4 | %211
w: |||||||||||||||||||
 z4 | z4 | z4 | z4 |] %215
w: ||||

